!!!OTL: Der abziehende Bursche.
!!!OTL-incipit: BEMOOSTER BURSCHE ZIEH ICH AUS
!!!COM: Nach A. Methfessel
!!!ARE: Europa, Mitteleuropa, Deutschland
!!!SCT: F0529
!!!TXL: @@DE
!!!YEM: Copyright 1995, estate of Helmut Schaffrath.
**kern	**text
*ICvox	*
*clefG2	*
*M6/8	*
*k[f#]	*
*G:	*
!LO:TX:a:t=Nicht ſchleppend.	!
!LO:TX:a:t=P:only the highest voice encoded:problem	!
{16ddL	1._Be-
16ccJ	.
=1	=1
4b/	-moo-
8b/	-ſter
8.b/L	Burſche
16ccJ	.
8dd/	.
=2	=2
4g	ʒieh
8g	ich
4g}	aus.
{8g	Be-
=3	=3
4cc	-hüt
8cc	dich
8.eeL	Gott,
16ddJ	.
16ccL	Phi-
16bJ	.
=4	=4
8.aL	-li-
16bJ	.
8a	-ſterhaus!
4a}	.
{8dd/	Ʒur
=5	=5
8ddL	al-
8bJ	.
8cc	-ten
4dd	Heimath
8gg	.
=6	=6
8dd/L	geh'
8bJ/	.
8cc/	ich
4dd/}	ein,
{8g	muß
=7	=7
8.eeL	ſel-
16ddJ	.
8cc	-ber
8.ddL	nun
16aJ	.
8b	Phi-
=8	=8
8.cc/L	-li-
16bJ	.
8a	-ſter
4b/}	ſein,
{8dd/	ʒur
=9	=9
8dd/L	al-
8bJ	.
8cc/	-ten
4dd/	Heimath
8gg	.
=10	=10
8dd/L	geh'
8bJ	.
8cc/	ich
4dd/}	ein,
{8g	muß
=11	=11
8.eeL	ſel-
16ddJ	.
8cc	-ber
8.dd/L	nun
16ccJ	.
8b/	Phi-
=12	=12
4.cc/	-li-
4.a	-ſter
=13	=13
4g	ſein!
8r	.
4r}	.
==	==
!!!AGN: Studenten - Lied, Abschied
!!!ONB: ESAC (Essen Associative Code) Database: FINK
!!!AMT: compound duple
!!!AIN: vox
!!!EED: Helmut Schaffrath
!!!EEV: 1.0
!!!GTL: Studentenlieder
!!Text: G. Schwab
!!!source: Musikalischer Hausschatz der Deutschen. Eine Sammlung von über 1000 Liedern und Gesängen mit Singstimmen und Klavierbegleitung. Leipzig, Litterarisches Verlags-Haus.
!!!page: 337
!!!URL-scan: https://www.digitale-sammlungen.de/en/view/bsb11144622?page=315
!!!ENC: Anna Maria Matuszewska
!!!EEV: 2024/08/02
*-	*-